Adwaita++-Dark/mimetypes/16/text-x-csharp.svg

<svg height="16" width="16" xmlns="http://www.w3.org/2000/svg">
  <path d="m2.285715 3.3571398s-2.285715 0-2.285715 2.2857179v4.5714323c0 2.28571 2.285715 2.28571 2.285715 2.28571h3.428572v-1.142858h-3.428572s-1.142858 0-1.142858-1.142852v-4.5714323c0-1.1428594 1.142858-1.1428594 1.142858-1.1428594h3.428572v-1.1428585zm6.857144 0v2.2857179h-2.285715v1.1428585h2.285715v2.2857113h-2.285715v1.1428625h2.285715v2.28571h1.142858v-2.28571h2.28571v2.28571h1.142857v-2.28571h2.285715v-1.1428625h-2.285715v-2.2857113h2.285715v-1.1428585h-2.285715v-2.2857179h-1.142857v2.2857179h-2.28571v-2.2857179zm1.142858 3.4285764h2.28571v2.2857113h-2.28571z" fill="#e6ddff"/>
</svg>

<svg xmlns="http://www.w3.org/2000/svg" width="16" height="16" version="1.1">
 <path style="fill:#E6DDFF" d="m 2.285715,3.3571398 c 0,0 -2.285715,0 -2.285715,2.2857179 V 10.21429 C 0,12.5 2.285715,12.5 2.285715,12.5 H 5.714287 V 11.357142 H 2.285715 c 0,0 -1.142858,0 -1.142858,-1.142852 V 5.6428577 c 0,-1.1428594 1.142858,-1.1428594 1.142858,-1.1428594 H 5.714287 V 3.3571398 Z m 6.857144,0 V 5.6428577 H 6.857144 V 6.7857162 H 9.142859 V 9.0714275 H 6.857144 V 10.21429 H 9.142859 V 12.5 h 1.142858 v -2.28571 h 2.28571 V 12.5 h 1.142857 v -2.28571 h 2.285715 V 9.0714275 H 13.714284 V 6.7857162 h 2.285715 V 5.6428577 H 13.714284 V 3.3571398 h -1.142857 v 2.2857179 h -2.28571 V 3.3571398 Z m 1.142858,3.4285764 h 2.28571 v 2.2857113 h -2.28571 z"/>
</svg>
